X:31
T:Bluegrass Valley Waltz
R:waltz
C:Bruce Osborne  --  April 6 1991
Z:abc by bosborne@kos.net
M:3/4
L:1/8
K:A
A,C D|E3 F EC|A,3 E (3FEC|D3 F AB|A4 (3FAF|\
E3 C EC|A,3 A (3ABc|B4 (3GBG|E3 A, CD|\
E3 F EC|A,3 E (3FEC|D3 F AB|A4 (3FAF|\
E3 C (3EAc|B3 E (3GAB|A4 AB|A3||\
Ac d|[A3 e3] [A e] [Ae][A f]|[A3 e3] [c e] (3[ce][Be2/3][A2/3 e2/3]|[F3 A3] [F d] [Ae][A f]|[A3 e3] A, CD|\
[E3 A3] A (3Ace|[c3 a3] [c a] (3[ca][cb2/3][c2/3 a2/3]|[B4 g4] (3fgf|[A3 e3] A cd|\
[A3 e3] [A e] [Ae][A f]|[A3 e3] [c e] (3[ce][Be2/3][A2/3 e2/3]|[F3 A3] [F d] [Ae][A f]|[A3 e3] A, CD|\
[E3 A3] A (3Ace|[E2 c2] [E2 c2] [D2 B2]|[C6 A6]|[C3 A3]||

